src/packages/tokens/img/aave.svg

<svg width="24" height="24" viewBox="0 0 24 24" fill="none" xmlns="http://www.w3.org/2000/svg">
<g clip-path="url(#clip0_8_2916)">
<path d="M12 24C18.6274 24 24 18.6274 24 12C24 5.37258 18.6274 0 12 0C5.37258 0 0 5.37258 0 12C0 18.6274 5.37258 24 12 24Z" fill="url(#paint0_linear_8_2916)"/>
<path d="M17.251 16.7798L13.192 6.97082C13.1221 6.7548 12.9866 6.56596 12.8043 6.43062C12.622 6.29529 12.402 6.2202 12.175 6.21582H11.816C11.589 6.2202 11.369 6.29529 11.1867 6.43062C11.0044 6.56596 10.8689 6.7548 10.799 6.97082L9.03303 11.2448H7.69702C7.50471 11.2456 7.32044 11.3221 7.18417 11.4579C7.0479 11.5936 6.9706 11.7775 6.96902 11.9698V11.9798C6.9706 12.1721 7.0479 12.3561 7.18417 12.4918C7.32044 12.6275 7.50471 12.704 7.69702 12.7048H8.41503L6.73002 16.7798C6.69815 16.8691 6.68126 16.963 6.68002 17.0578C6.67218 17.2594 6.74403 17.4559 6.88002 17.6048C6.9498 17.676 7.03399 17.7315 7.12694 17.7676C7.2199 17.8036 7.31948 17.8194 7.41903 17.8138C7.5697 17.8119 7.71608 17.7633 7.83802 17.6748C7.96563 17.5803 8.06545 17.4532 8.12702 17.3068L9.98002 12.7058H11.267C11.4593 12.705 11.6436 12.6285 11.7799 12.4928C11.9161 12.3571 11.9934 12.1731 11.995 11.9808V11.9608C11.9934 11.7685 11.9161 11.5846 11.7799 11.4489C11.6436 11.3131 11.4593 11.2366 11.267 11.2358H10.58L11.995 7.70682L15.854 17.3068C15.9156 17.4532 16.0154 17.5803 16.143 17.6748C16.265 17.7633 16.4114 17.8119 16.562 17.8138C16.6616 17.8194 16.7612 17.8036 16.8541 17.7676C16.9471 17.7315 17.0313 17.676 17.101 17.6048C17.237 17.4559 17.3089 17.2594 17.301 17.0578C17.3047 16.9626 17.2877 16.8678 17.251 16.7798V16.7798Z" fill="white"/>
</g>
<defs>
<linearGradient id="paint0_linear_8_2916" x1="21.768" y1="5.448" x2="3.912" y2="20.472" gradientUnits="userSpaceOnUse">
<stop stop-color="#B6509E"/>
<stop offset="1" stop-color="#2EBAC6"/>
</linearGradient>
<clipPath id="clip0_8_2916">
<rect width="24" height="24" fill="white"/>
</clipPath>
</defs>
</svg>

<svg xmlns="http://www.w3.org/2000/svg" width="24" height="24" fill="none" xmlns:v="https://vecta.io/nano"><g clip-path="url(#B)"><path d="M12 24c6.627 0 12-5.373 12-12S18.627 0 12 0 0 5.373 0 12s5.373 12 12 12z" fill="url(#A)"/><path d="M17.251 16.78l-4.059-9.809a1.09 1.09 0 0 0-1.017-.755h-.359a1.09 1.09 0 0 0-1.017.755l-1.766 4.274H7.697a.73.73 0 0 0-.728.725v.01a.73.73 0 0 0 .728.725h.718L6.73 16.78a.86.86 0 0 0-.05.278c-.008.202.064.398.2.547a.7.7 0 0 0 .539.209.73.73 0 0 0 .419-.139c.128-.095.227-.222.289-.368l1.853-4.601h1.287a.73.73 0 0 0 .728-.725v-.02a.73.73 0 0 0-.728-.725h-.687l1.415-3.529 3.859 9.6c.062.146.161.274.289.368a.73.73 0 0 0 .419.139.7.7 0 0 0 .539-.209c.136-.149.208-.345.2-.547.004-.095-.013-.19-.05-.278h0z" fill="#fff"/></g><defs><linearGradient id="A" x1="21.768" y1="5.448" x2="3.912" y2="20.472" gradientUnits="userSpaceOnUse"><stop stop-color="#b6509e"/><stop offset="1" stop-color="#2ebac6"/></linearGradient><clipPath id="B"><path fill="#fff" d="M0 0h24v24H0z"/></clipPath></defs></svg>
